X:96
T:We Won't Go Home 'Till Morning
S:American Veteran Fifer #96
M:6/8
L:1/8
Q:1/8=300
K:D 
%%MIDI program 72
%%MIDI transpose 8
%%MIDI ratio 3 1
d/e/ | f2f fef | g3f2f | e2e ede | f3d2 d/e/ |
f2f fef | g3 a2g | f2f ede | d3 d2 :|
|: f/g/ | a2a b2b | a3-a zf/g/ | a2a b2b | a3-a zd/e/ |
f2f fef | g3f2f | e2e ede | f3d2 d/e/ |
f2f fef | g3b3 | aba gfe | d3 d2 :|


